lib/flags/il-isreal.svg

<svg xmlns="http://www.w3.org/2000/svg" fill="none" aria-hidden="true" viewBox="0 0 42 30"><g id="Country=IL - Isreal, Size=sm (36x24)" filter="url(#filter0_dd_91_27588)"><g clip-path="url(#clip0_91_27588)"><g id="flag"><mask id="mask0_91_27588" width="36" height="24" x="3" y="2" maskUnits="userSpaceOnUse" style="mask-type:alpha"><rect id="mask" width="36" height="24" x="3" y="2" fill="white"/></mask><g mask="url(#mask0_91_27588)"><g id="contents"><path id="background" fill="#F7FCFF" fill-rule="evenodd" d="M3 2V26H39V2H3Z" clip-rule="evenodd"/><mask id="mask1_91_27588" width="36" height="24" x="3" y="2" maskUnits="userSpaceOnUse" style="mask-type:alpha"><path id="background_2" fill="white" fill-rule="evenodd" d="M3 2V26H39V2H3Z" clip-rule="evenodd"/></mask><g mask="url(#mask1_91_27588)"><path id="top" fill="#3D58DB" fill-rule="evenodd" d="M3 5V8H39V5H3Z" clip-rule="evenodd"/><path id="bottom" fill="#3D58DB" fill-rule="evenodd" d="M3 20V23H39V20H3Z" clip-rule="evenodd"/><path id="Rectangle 31" fill="#3D58DB" fill-rule="evenodd" d="M15.8037 16.9386H26.3528L21.1303 8.62012L15.8037 16.9386ZM24.5472 15.9294H17.6479L21.1197 10.4598L24.5472 15.9294Z" clip-rule="evenodd"/><path id="Rectangle 31_2" fill="#3D58DB" fill-rule="evenodd" d="M15.6719 11.0762H26.2658L21.1527 19.1616L15.6719 11.0762ZM24.4259 12.0501H17.6823L21.1228 17.5313L24.4259 12.0501Z" clip-rule="evenodd"/></g></g></g></g></g></g><defs><filter id="filter0_dd_91_27588" width="42" height="30" x="0" y="0" color-interpolation-filters="sRGB" filterUnits="userSpaceOnUse"><feFlood flood-opacity="0" result="BackgroundImageFix"/><feColorMatrix in="SourceAlpha" result="hardAlpha" values="0 0 0 0 0 0 0 0 0 0 0 0 0 0 0 0 0 0 127 0"/><feOffset dy="1"/><feGaussianBlur stdDeviation="1"/><feColorMatrix values="0 0 0 0 0.0627451 0 0 0 0 0.0941176 0 0 0 0 0.156863 0 0 0 0.06 0"/><feBlend in2="BackgroundImageFix" result="effect1_dropShadow_91_27588"/><feColorMatrix in="SourceAlpha" result="hardAlpha" values="0 0 0 0 0 0 0 0 0 0 0 0 0 0 0 0 0 0 127 0"/><feOffset dy="1"/><feGaussianBlur stdDeviation="1.5"/><feColorMatrix values="0 0 0 0 0.0627451 0 0 0 0 0.0941176 0 0 0 0 0.156863 0 0 0 0.1 0"/><feBlend in2="effect1_dropShadow_91_27588" result="effect2_dropShadow_91_27588"/><feBlend in="SourceGraphic" in2="effect2_dropShadow_91_27588" result="shape"/></filter><clipPath id="clip0_91_27588"><rect width="36" height="24" x="3" y="2" fill="white" rx="2"/></clipPath></defs></svg>

<svg xmlns="http://www.w3.org/2000/svg" fill="none" aria-hidden="true" viewBox="0 0 42 30"><g filter="url(#a)"><g clip-path="url(#b)"><mask id="c" width="36" height="24" x="3" y="2" maskUnits="userSpaceOnUse" style="mask-type:alpha"><path fill="#fff" d="M3 2h36v24H3z"/></mask><g mask="url(#c)"><path fill="#F7FCFF" fill-rule="evenodd" d="M3 2v24h36V2H3Z" clip-rule="evenodd"/><mask id="d" width="36" height="24" x="3" y="2" maskUnits="userSpaceOnUse" style="mask-type:alpha"><path fill="#fff" fill-rule="evenodd" d="M3 2v24h36V2H3Z" clip-rule="evenodd"/></mask><g fill="#3D58DB" fill-rule="evenodd" clip-rule="evenodd" mask="url(#d)"><path d="M3 5v3h36V5H3Zm0 15v3h36v-3H3Zm12.804-3.061h10.549L21.13 8.62l-5.326 8.319Zm8.743-1.01h-6.9l3.473-5.47 3.427 5.47Z"/><path d="M15.672 11.076h10.594l-5.113 8.086-5.481-8.086Zm8.754.974h-6.744l3.44 5.481 3.304-5.48Z"/></g></g></g></g><defs><clipPath id="b"><rect width="36" height="24" x="3" y="2" fill="#fff" rx="2"/></clipPath><filter id="a" width="42" height="30" x="0" y="0" color-interpolation-filters="sRGB" filterUnits="userSpaceOnUse"><feFlood flood-opacity="0" result="BackgroundImageFix"/><feColorMatrix in="SourceAlpha" result="hardAlpha" values="0 0 0 0 0 0 0 0 0 0 0 0 0 0 0 0 0 0 127 0"/><feOffset dy="1"/><feGaussianBlur stdDeviation="1"/><feColorMatrix values="0 0 0 0 0.0627451 0 0 0 0 0.0941176 0 0 0 0 0.156863 0 0 0 0.06 0"/><feBlend in2="BackgroundImageFix" result="effect1_dropShadow_91_27588"/><feColorMatrix in="SourceAlpha" result="hardAlpha" values="0 0 0 0 0 0 0 0 0 0 0 0 0 0 0 0 0 0 127 0"/><feOffset dy="1"/><feGaussianBlur stdDeviation="1.5"/><feColorMatrix values="0 0 0 0 0.0627451 0 0 0 0 0.0941176 0 0 0 0 0.156863 0 0 0 0.1 0"/><feBlend in2="effect1_dropShadow_91_27588" result="effect2_dropShadow_91_27588"/><feBlend in="SourceGraphic" in2="effect2_dropShadow_91_27588" result="shape"/></filter></defs></svg>
